;FLAVOR:Marlin
;TIME:228
;Filament used: 0.0832652m
;Layer height: 0.16
;MINX:100.025
;MINY:102.406
;MINZ:0.2
;MAXX:134.973
;MAXY:136.266
;MAXZ:4.68
;TARGET_MACHINE.NAME:Creality Ender-3
;Generated with Cura_SteamEngine 5.9.1
M140 S50
M105
M190 S50
M104 S200
M105
M109 S200
M82 ;absolute extrusion mode
; Ender 3 Custom Start G-code
G92 E0 ; Reset Extruder
G28 ; Home all axes
G1 Z2.0 F3000 ; Move Z Axis up little to prevent scratching of Heat Bed
G1 X0.1 Y20 Z0.3 F5000.0 ; Move to start position
G1 X0.1 Y200.0 Z0.3 F1500.0 E15 ; Draw the first line
G1 X0.4 Y200.0 Z0.3 F5000.0 ; Move to side a little
G1 X0.4 Y20 Z0.3 F1500.0 E30 ; Draw the second line
G92 E0 ; Reset Extruder
G1 Z2.0 F3000 ; Move Z Axis up little to prevent scratching of Heat Bed
G1 X5 Y20 Z0.3 F5000.0 ; Move over to prevent blob squish
G92 E0
G92 E0
G1 F2700 E-5
;LAYER_COUNT:24
;LAYER:0
M107
G0 F6000 X118.477 Y136.173 Z0.2
;TYPE:SKIRT
G1 F2700 E0
G1 F1200 X117.436 Y136.266 E0.03476
G1 X116.473 Y136.264 E0.06679
G1 X115.807 Y136.214 E0.089
G1 X115.027 Y136.117 E0.11515
G1 X114.634 Y136.055 E0.12838
G1 X114.032 Y135.943 E0.14875
G1 X113.326 Y135.778 E0.17286
G1 X112.852 Y135.65 E0.18919
G1 X111.892 Y135.344 E0.2227
G1 X111.19 Y135.082 E0.24763
G1 X109.939 Y134.523 E0.2932
G1 X109.31 Y134.192 E0.31684
G1 X108.45 Y133.687 E0.35001
G1 X107.927 Y133.346 E0.37078
G1 X107.002 Y132.669 E0.4089
G1 X106.464 Y132.227 E0.43206
G1 X105.56 Y131.393 E0.47297
G1 X105.068 Y130.885 E0.49649
G1 X104.409 Y130.136 E0.52967
G1 X104.084 Y129.731 E0.54694
G1 X103.718 Y129.245 E0.56718
G1 X103.293 Y128.623 E0.59223
G1 X103.046 Y128.234 E0.60756
G1 X102.58 Y127.427 E0.63855
G1 X102.23 Y126.752 E0.66384
G1 X101.707 Y125.573 E0.70674
G1 X101.486 Y124.979 E0.72782
G1 X101.29 Y124.396 E0.74828
G1 X100.506 Y121.84 E0.8372
G1 X100.263 Y120.896 E0.86962
G1 X100.107 Y119.937 E0.90194
G1 X100.036 Y119.003 E0.93309
G1 X100.025 Y118.628 E0.94557
G1 X100.04 Y117.655 E0.97794
G1 X100.141 Y116.686 E1.01034
G1 X100.326 Y115.733 E1.04263
G1 X100.56 Y114.907 E1.07118
G1 X100.677 Y114.547 E1.08377
G1 X101.022 Y113.636 E1.11617
G1 X101.445 Y112.758 E1.14859
G1 X101.907 Y111.982 E1.17863
G1 X102.347 Y111.355 E1.2041
G1 X102.563 Y111.07 E1.216
G1 X103.185 Y110.322 E1.24835
G1 X103.845 Y109.655 E1.27956
G1 X104.611 Y109.008 E1.31291
G1 X105.214 Y108.576 E1.33758
G1 X105.977 Y108.084 E1.36778
G1 X108.317 Y106.693 E1.45832
G1 X111.404 Y104.714 E1.58028
G1 X111.979 Y104.332 E1.60324
G1 X112.813 Y103.83 E1.63562
G1 X113.689 Y103.404 E1.66802
G1 X114.606 Y103.053 E1.70067
G1 X115.747 Y102.742 E1.74001
G1 X116.222 Y102.641 E1.75616
G1 X117.183 Y102.48 E1.78857
G1 X118.156 Y102.406 E1.82102
G1 X119.129 Y102.419 E1.85339
G1 X120.101 Y102.517 E1.88588
G1 X121.088 Y102.708 E1.91932
G1 X121.762 Y102.873 E1.9424
G1 X122.371 Y103.04 E1.9634
G1 X123.342 Y103.364 E1.99745
G1 X124.035 Y103.633 E2.02217
G1 X125.226 Y104.181 E2.06578
G1 X125.807 Y104.493 E2.08771
G1 X126.729 Y105.049 E2.12352
G1 X127.277 Y105.419 E2.14551
G1 X128.209 Y106.124 E2.18438
G1 X128.658 Y106.504 E2.20394
G1 X129.342 Y107.135 E2.2349
G1 X129.81 Y107.608 E2.25703
G1 X130.579 Y108.474 E2.29555
G1 X131.042 Y109.056 E2.32028
G1 X131.719 Y110.015 E2.35933
G1 X132.037 Y110.524 E2.37929
G1 X132.408 Y111.164 E2.40389
G1 X132.682 Y111.69 E2.42362
G1 X132.911 Y112.162 E2.44107
G1 X133.337 Y113.166 E2.47734
G1 X133.533 Y113.697 E2.49617
G1 X133.694 Y114.171 E2.51282
G1 X134.091 Y115.438 E2.55698
G1 X134.143 Y115.635 E2.56376
G1 X134.492 Y116.774 E2.60338
G1 X134.734 Y117.717 E2.63576
G1 X134.891 Y118.676 E2.66808
G1 X134.96 Y119.558 E2.69751
G1 X134.973 Y119.942 E2.71028
G1 X134.963 Y120.917 E2.74272
G1 X134.866 Y121.885 E2.77507
G1 X134.687 Y122.836 E2.80726
G1 X134.472 Y123.621 E2.83433
G1 X134.364 Y123.963 E2.84626
G1 X134.041 Y124.845 E2.8775
G1 X133.612 Y125.756 E2.91099
G1 X133.142 Y126.563 E2.94205
G1 X132.738 Y127.151 E2.96578
G1 X132.507 Y127.462 E2.97866
G1 X131.939 Y128.164 E3.0087
G1 X131.211 Y128.915 E3.04349
G1 X130.475 Y129.547 E3.07575
G1 X129.763 Y130.062 E3.10498
G1 X129.106 Y130.496 E3.13117
G1 X127.21 Y131.696 E3.2058
G1 X125.138 Y133.091 E3.28888
G1 X123.604 Y134.176 E3.35137
G1 X122.814 Y134.683 E3.38259
G1 X121.906 Y135.156 E3.41664
G1 X120.638 Y135.654 E3.46195
G1 X120.305 Y135.76 E3.47358
G1 X119.366 Y136.013 E3.50592
G1 X118.477 Y136.173 E3.53597
G0 F6000 X118.406 Y135.779
G1 F1200 X117.436 Y135.866 E3.56836
G1 X116.503 Y135.865 E3.59939
G1 X115.856 Y135.817 E3.62097
G1 X115.089 Y135.722 E3.64667
G1 X114.707 Y135.662 E3.65953
G1 X114.123 Y135.553 E3.67929
G1 X113.43 Y135.392 E3.70296
G1 X112.973 Y135.269 E3.7187
G1 X112.032 Y134.969 E3.75155
G1 X111.33 Y134.707 E3.77647
G1 X110.125 Y134.169 E3.82036
G1 X109.512 Y133.847 E3.84339
G1 X108.668 Y133.352 E3.87593
G1 X108.163 Y133.023 E3.89598
G1 X107.256 Y132.36 E3.93335
G1 X106.735 Y131.933 E3.95575
G1 X105.847 Y131.115 E3.99591
G1 X105.368 Y130.621 E4.0188
G1 X104.721 Y129.886 E4.05136
G1 X104.404 Y129.49 E4.06823
G1 X104.038 Y129.004 E4.08847
G1 X103.623 Y128.397 E4.11293
G1 X103.392 Y128.034 E4.12724
G1 X102.935 Y127.243 E4.15762
G1 X102.596 Y126.59 E4.18209
G1 X102.082 Y125.433 E4.2242
G1 X101.865 Y124.851 E4.24486
G1 X101.672 Y124.279 E4.26494
G1 X100.893 Y121.74 E4.35327
G1 X100.658 Y120.831 E4.3845
G1 X100.506 Y119.906 E4.41568
G1 X100.436 Y118.991 E4.4462
G1 X100.425 Y118.634 E4.45808
G1 X100.438 Y117.696 E4.48928
G1 X100.534 Y116.762 E4.52051
G1 X100.711 Y115.842 E4.55167
G1 X100.94 Y115.03 E4.57973
G1 X101.051 Y114.688 E4.59169
G1 X101.382 Y113.809 E4.62293
G1 X101.789 Y112.963 E4.65415
G1 X102.251 Y112.187 E4.68419
G1 X102.666 Y111.596 E4.70821
G1 X102.871 Y111.325 E4.71951
G1 X103.47 Y110.603 E4.75071
G1 X104.104 Y109.96 E4.78075
G1 X104.844 Y109.333 E4.81301
G1 X105.431 Y108.912 E4.83703
G1 X106.181 Y108.428 E4.86672
G1 X108.533 Y107.03 E4.95773
G1 X111.62 Y105.051 E5.07969
G1 X112.186 Y104.674 E5.10231
G1 X112.989 Y104.189 E5.13351
G1 X113.832 Y103.777 E5.16471
G1 X114.712 Y103.439 E5.19607
G1 X115.831 Y103.133 E5.23465
G1 X116.289 Y103.035 E5.25023
G1 X117.214 Y102.879 E5.28143
G1 X118.151 Y102.806 E5.31269
G1 X119.089 Y102.817 E5.34389
G1 X120.025 Y102.91 E5.37517
G1 X121.012 Y103.101 E5.40861
G1 X121.656 Y103.259 E5.43067
G1 X122.265 Y103.426 E5.45167
G1 X123.197 Y103.737 E5.48435
G1 X123.89 Y104.006 E5.50907
G1 X125.037 Y104.533 E5.55106
G1 X125.6 Y104.835 E5.57231
G1 X126.505 Y105.381 E5.60746
G1 X127.053 Y105.751 E5.62945
G1 X127.951 Y106.429 E5.66688
G1 X128.387 Y106.798 E5.68587
G1 X129.058 Y107.417 E5.71624
G1 X129.511 Y107.874 E5.73764
G1 X130.266 Y108.723 E5.77543
G1 X130.715 Y109.287 E5.79941
G1 X131.392 Y110.246 E5.83845
G1 X131.691 Y110.725 E5.85723
G1 X132.053 Y111.349 E5.88122
G1 X132.322 Y111.865 E5.90058
G1 X132.551 Y112.337 E5.91803
G1 X132.962 Y113.304 E5.95297
G1 X133.154 Y113.826 E5.97147
G1 X133.312 Y114.291 E5.98781
G1 X133.704 Y115.54 E6.03135
G1 X133.756 Y115.737 E6.03812
G1 X134.105 Y116.874 E6.07768
G1 X134.339 Y117.782 E6.10887
G1 X134.492 Y118.707 E6.14005
G1 X134.56 Y119.572 E6.16891
G1 X134.573 Y119.939 E6.18113
G1 X134.565 Y120.878 E6.21236
G1 X134.473 Y121.811 E6.24354
G1 X134.301 Y122.731 E6.27467
G1 X134.091 Y123.5 E6.30118
G1 X133.988 Y123.825 E6.31252
G1 X133.665 Y124.707 E6.34376
G1 X133.266 Y125.555 E6.37493
G1 X132.812 Y126.336 E6.40498
G1 X132.408 Y126.924 E6.42871
G1 X132.196 Y127.21 E6.44055
G1 X131.628 Y127.912 E6.47058
G1 X130.95 Y128.612 E6.503
G1 X130.241 Y129.223 E6.53413
G1 X129.543 Y129.728 E6.56278
G1 X128.892 Y130.158 E6.58873
G1 X126.996 Y131.358 E6.66336
G1 X124.907 Y132.764 E6.74711
G1 X123.388 Y133.839 E6.80901
G1 X122.598 Y134.346 E6.84023
G1 X121.76 Y134.784 E6.87168
G1 X120.516 Y135.273 E6.91613
G1 X120.2 Y135.374 E6.92717
G1 X119.295 Y135.619 E6.95835
G1 X118.406 Y135.779 E6.9884
G0 F6000 X118.335 Y135.385
G1 F1200 X117.436 Y135.466 E7.01842
G1 X116.532 Y135.466 E7.04848
G1 X115.905 Y135.42 E7.06939
G1 X115.151 Y135.327 E7.09466
G1 X114.781 Y135.269 E7.10712
G1 X114.214 Y135.163 E7.1263
G1 X113.521 Y135.002 E7.14997
G1 X113.094 Y134.888 E7.16467
G1 X112.171 Y134.594 E7.19689
G1 X111.493 Y134.342 E7.22094
G1 X110.311 Y133.815 E7.26399
G1 X109.714 Y133.502 E7.28641
G1 X108.886 Y133.017 E7.31832
G1 X108.399 Y132.7 E7.33765
G1 X107.509 Y132.05 E7.37431
G1 X107.006 Y131.639 E7.39591
G1 X106.134 Y130.837 E7.43532
G1 X105.668 Y130.356 E7.45759
G1 X105.033 Y129.636 E7.48952
G1 X104.723 Y129.249 E7.50601
G1 X104.368 Y128.778 E7.52563
G1 X103.96 Y128.182 E7.54965
G1 X103.738 Y127.834 E7.56338
G1 X103.29 Y127.058 E7.59318
G1 X102.962 Y126.428 E7.61681
G1 X102.448 Y125.271 E7.65892
G1 X102.244 Y124.722 E7.6784
G1 X102.054 Y124.162 E7.69806
G1 X101.28 Y121.64 E7.78581
G1 X101.053 Y120.765 E7.81587
G1 X100.905 Y119.875 E7.84588
G1 X100.836 Y118.978 E7.8758
G1 X100.825 Y118.639 E7.88708
G1 X100.836 Y117.736 E7.91712
G1 X100.927 Y116.837 E7.94717
G1 X101.096 Y115.95 E7.97721
G1 X101.32 Y115.154 E8.00471
G1 X101.426 Y114.828 E8.01611
G1 X101.743 Y113.982 E8.04616
G1 X102.133 Y113.168 E8.07618
G1 X102.595 Y112.392 E8.10622
G1 X102.985 Y111.837 E8.12878
G1 X103.179 Y111.58 E8.13949
G1 X103.755 Y110.884 E8.16954
G1 X104.389 Y110.241 E8.19957
G1 X105.078 Y109.658 E8.22959
G1 X105.648 Y109.248 E8.25294
G1 X106.385 Y108.772 E8.28213
G1 X108.749 Y107.367 E8.37359
G1 X111.836 Y105.388 E8.49555
G1 X112.393 Y105.016 E8.51783
G1 X113.165 Y104.548 E8.54786
G1 X113.976 Y104.15 E8.5779
G1 X114.818 Y103.825 E8.60792
G1 X115.915 Y103.524 E8.64576
G1 X116.356 Y103.429 E8.66076
G1 X117.246 Y103.278 E8.69079
G1 X118.147 Y103.206 E8.72085
G1 X119.05 Y103.215 E8.75088
G1 X119.949 Y103.303 E8.78093
G1 X120.936 Y103.494 E8.81436
G1 X121.551 Y103.645 E8.83543
G1 X122.138 Y103.805 E8.85566
G1 X123.052 Y104.11 E8.88771
G1 X123.723 Y104.37 E8.91165
G1 X124.848 Y104.886 E8.95281
G1 X125.394 Y105.178 E8.9734
G1 X126.282 Y105.713 E9.00789
G1 X126.812 Y106.07 E9.02914
G1 X127.693 Y106.735 E9.06585
G1 X128.116 Y107.092 E9.08426
G1 X128.774 Y107.699 E9.11404
G1 X129.212 Y108.14 E9.13471
G1 X129.953 Y108.972 E9.17177
G1 X130.388 Y109.518 E9.19499
G1 X131.065 Y110.477 E9.23403
G1 X131.345 Y110.926 E9.25163
G1 X131.698 Y111.534 E9.27501
G1 X131.962 Y112.04 E9.294
G1 X132.183 Y112.494 E9.31079
G1 X132.587 Y113.442 E9.34506
G1 X132.775 Y113.954 E9.3632
G1 X132.93 Y114.411 E9.37925
G1 X133.317 Y115.642 E9.42217
G1 X133.369 Y115.839 E9.42895
G1 X133.718 Y116.974 E9.46844
G1 X133.944 Y117.848 E9.49847
G1 X134.093 Y118.739 E9.52852
G1 X134.16 Y119.587 E9.55681
G1 X134.173 Y119.936 E9.56842
G1 X134.167 Y120.839 E9.59846
G1 X134.08 Y121.738 E9.6285
G1 X133.915 Y122.626 E9.65854
G1 X133.709 Y123.38 E9.68454
G1 X133.612 Y123.688 E9.69528
G1 X133.303 Y124.537 E9.72533
G1 X132.92 Y125.354 E9.75534
G1 X132.466 Y126.135 E9.78539
G1 X132.086 Y126.686 E9.80765
G1 X131.885 Y126.958 E9.8189
G1 X131.317 Y127.66 E9.84893
G1 X130.689 Y128.309 E9.87897
G1 X130.006 Y128.899 E9.90899
G1 X129.323 Y129.394 E9.93704
G1 X128.678 Y129.82 E9.96275
G1 X126.782 Y131.02 E10.03738
G1 X124.684 Y132.432 E10.12149
G1 X123.172 Y133.503 E10.18312
G1 X122.412 Y133.992 E10.21318
G1 X121.613 Y134.412 E10.2432
G1 X120.394 Y134.892 E10.28678
G1 X120.095 Y134.988 E10.29722
G1 X119.224 Y135.225 E10.32724
G1 X118.335 Y135.385 E10.35729
G1 F2700 E5.35729
;MESH:Gumb.STL
G0 F6000 X117.267 Y125.891
G0 X116.926 Y124.698
;TYPE:WALL-INNER
G1 F2700 E10.35729
G1 F1379.3 X116.926 Y124.049 E10.37607
G1 X116.726 Y124.303 E10.38542
G1 X116.441 Y124.51 E10.39561
G1 F1363.6 X116.27 Y124.579 E10.40101
G1 X116.456 Y124.634 E10.40669
G1 F1379.3 X116.926 Y124.698 E10.42041
G0 F6000 X117.061 Y122.851
G0 X117.486 Y122.352
G0 X117.5 Y122.583
G1 F866.4 X117.927 Y122.557 E10.44012
G1 F869.6 X118.35 Y122.47 E10.45994
G1 F868 X118.748 Y122.334 E10.47928
G1 F869.6 X119.134 Y122.144 E10.49903
G1 F871.1 X119.492 Y121.906 E10.51872
G1 F872.7 X119.812 Y121.627 E10.53814
G1 X120.094 Y121.301 E10.55785
G1 F869.6 X120.332 Y120.945 E10.57751
G1 F872.7 X120.523 Y120.557 E10.59729
G1 F875.9 X120.66 Y120.162 E10.61634
G1 F872.7 X120.744 Y119.739 E10.63606
G1 F868 X120.77 Y119.308 E10.65591
G1 F866.4 X120.743 Y118.881 E10.67562
G1 F871.1 X120.66 Y118.457 E10.69542
G1 F872.7 X120.523 Y118.056 E10.7148
G1 F869.6 X120.334 Y117.677 E10.73424
G1 X120.094 Y117.32 E10.75398
G1 F872.7 X119.812 Y116.993 E10.77373
G1 F874.3 X119.492 Y116.713 E10.79314
G1 F872.7 X119.133 Y116.475 E10.81284
G1 F869.6 X118.745 Y116.284 E10.83269
G1 F849.6 X118.096 Y116.068 E10.86482
G1 F814.9 X117.938 Y115.904 E10.87597
G1 X117.74 Y116.025 E10.88734
G1 F849.6 X117.07 Y116.065 E10.91887
G1 F869.6 X116.649 Y116.149 E10.93857
G1 F872.7 X116.246 Y116.285 E10.95803
G1 X115.864 Y116.474 E10.97752
G1 F869.6 X115.508 Y116.715 E10.99725
G1 X115.184 Y116.996 E11.01693
G1 F872.7 X114.901 Y117.319 E11.03657
G1 F875.9 X114.662 Y117.674 E11.05607
G1 F872.7 X114.478 Y118.056 E11.07546
G1 F871.1 X114.339 Y118.457 E11.09491
G1 F869.6 X114.255 Y118.881 E11.11475
G1 F872.7 X114.224 Y119.308 E11.13433
G1 X114.256 Y119.739 E11.15409
G1 F868 X114.339 Y120.164 E11.174
G1 F869.6 X114.473 Y120.557 E11.19306
G1 F872.7 X114.662 Y120.946 E11.21284
G1 F874.3 X114.901 Y121.301 E11.23238
G1 F872.7 X115.185 Y121.623 E11.25201
G1 F869.6 X115.508 Y121.905 E11.27169
G1 F871.1 X115.863 Y122.145 E11.29133
G1 F875.9 X116.249 Y122.336 E11.31095
G1 F854.1 X116.91 Y122.555 E11.34349
G1 F812.2 X117.062 Y122.713 E11.35426
G1 F810.8 X117.249 Y122.598 E11.36507
G1 F845.1 X117.5 Y122.583 E11.37695
G0 F6000 X117.5 Y122.027
G1 F860.2 X117.143 Y122.043 E11.39353
G1 F866.4 X116.511 Y121.85 E11.42397
G1 F875.9 X116.115 Y121.657 E11.44404
G1 F874.3 X115.669 Y121.338 E11.46907
G1 F875.9 X115.346 Y120.98 E11.49104
G1 F874.3 X115.134 Y120.665 E11.50838
G1 F875.9 X114.927 Y120.212 E11.53107
G1 F879.1 X114.819 Y119.791 E11.5508
G1 F875.9 X114.77 Y119.316 E11.57256
G1 X114.808 Y118.898 E11.59169
G1 X114.9 Y118.47 E11.61164
G1 F877.5 X115.121 Y117.971 E11.63646
G1 F879.1 X115.391 Y117.582 E11.65796
G1 F875.9 X115.746 Y117.219 E11.68109
G1 F872.7 X116.127 Y116.958 E11.70221
G1 X116.461 Y116.79 E11.71931
G1 F875.9 X116.929 Y116.641 E11.74169
G1 X117.366 Y116.591 E11.76173
G1 F836.2 X117.853 Y116.58 E11.78498
G1 X118.341 Y116.721 E11.80923
G1 F877.5 X118.769 Y116.895 E11.83024
G1 F875.9 X119.149 Y117.142 E11.85089
G1 F874.3 X119.433 Y117.391 E11.86813
G1 F875.9 X119.741 Y117.756 E11.8899
G1 F877.5 X119.972 Y118.168 E11.91138
G1 X120.132 Y118.604 E11.9325
G1 F875.9 X120.212 Y119.041 E11.95275
G1 F877.5 X120.213 Y119.526 E11.97481
G1 F879.1 X120.139 Y120.001 E11.99663
G1 F882.4 X119.974 Y120.447 E12.01814
G1 X119.755 Y120.836 E12.03833
G1 F879.1 X119.459 Y121.208 E12.05992
G1 F874.3 X119.15 Y121.477 E12.07862
G1 X118.771 Y121.723 E12.09924
G1 F875.9 X118.318 Y121.906 E12.12151
G1 F874.3 X117.854 Y122.012 E12.14323
G1 F869.6 X117.5 Y122.027 E12.1595
G0 F6000 X117.5 Y121.552
;TYPE:WALL-OUTER
G1 F1200 X117.4 Y121.556 E12.16283
G1 X117.028 Y121.512 E12.17528
G1 X116.636 Y121.391 E12.18893
G1 X116.304 Y121.217 E12.2014
G1 X116.013 Y121 E12.21347
G1 X115.753 Y120.732 E12.22589
G1 X115.537 Y120.417 E12.23859
G1 X115.374 Y120.058 E12.25171
G1 X115.28 Y119.679 E12.26469
G1 X115.248 Y119.293 E12.27758
G1 X115.28 Y118.941 E12.28933
G1 X115.381 Y118.545 E12.30292
G1 X115.528 Y118.22 E12.31479
G1 X115.748 Y117.892 E12.32792
G1 X116.025 Y117.61 E12.34107
G1 X116.316 Y117.398 E12.35305
G1 X116.651 Y117.224 E12.3656
G1 X117.008 Y117.112 E12.37805
G1 X117.395 Y117.064 E12.39102
G1 X117.79 Y117.077 E12.40416
G1 X118.166 Y117.161 E12.41698
G1 X118.513 Y117.3 E12.42941
G1 X118.849 Y117.509 E12.44257
G1 X119.132 Y117.76 E12.45515
G1 X119.371 Y118.065 E12.46804
G1 X119.548 Y118.378 E12.48
G1 X119.677 Y118.736 E12.49266
G1 X119.738 Y119.103 E12.50503
G1 X119.741 Y119.484 E12.5177
G1 X119.681 Y119.868 E12.53063
G1 X119.549 Y120.24 E12.54376
G1 X119.363 Y120.572 E12.55641
G1 X119.128 Y120.864 E12.56888
G1 X118.848 Y121.111 E12.5813
G1 X118.509 Y121.32 E12.59455
G1 X118.165 Y121.458 E12.60687
G1 X117.788 Y121.542 E12.61972
G1 X117.5 Y121.552 E12.6293
G1 F2700 E7.6293
G0 F6000 X117.53 Y122.266
G0 X117.5 Y123.059
G1 F2700 E12.6293
