;FLAVOR:Marlin
;TIME:697
;Filament used: 0.344218m
;Layer height: 0.16
;MINX:94.04
;MINY:88.581
;MINZ:0.2
;MAXX:140.958
;MAXY:146.458
;MAXZ:4.68
;TARGET_MACHINE.NAME:Creality Ender-3
;Generated with Cura_SteamEngine 5.9.1
M140 S50
M105
M190 S50
M104 S200
M105
M109 S200
M82 ;absolute extrusion mode
; Ender 3 Custom Start G-code
G92 E0 ; Reset Extruder
G28 ; Home all axes
G1 Z2.0 F3000 ; Move Z Axis up little to prevent scratching of Heat Bed
G1 X0.1 Y20 Z0.3 F5000.0 ; Move to start position
G1 X0.1 Y200.0 Z0.3 F1500.0 E15 ; Draw the first line
G1 X0.4 Y200.0 Z0.3 F5000.0 ; Move to side a little
G1 X0.4 Y20 Z0.3 F1500.0 E30 ; Draw the second line
G92 E0 ; Reset Extruder
G1 Z2.0 F3000 ; Move Z Axis up little to prevent scratching of Heat Bed
G1 X5 Y20 Z0.3 F5000.0 ; Move over to prevent blob squish
G92 E0
G92 E0
G1 F2700 E-5
;LAYER_COUNT:24
;LAYER:0
M107
G0 F6000 X118.88 Y146.382 Z0.2
;TYPE:SKIRT
G1 F2700 E0
G1 F1200 X117.909 Y146.458 E0.03239
G1 X117.006 Y146.452 E0.06243
G1 X116.13 Y146.376 E0.09167
G1 X115.846 Y146.338 E0.1012
G1 X114.887 Y146.167 E0.1336
G1 X113.947 Y145.914 E0.16598
G1 X113.041 Y145.581 E0.19809
G1 X112.271 Y145.23 E0.22623
G1 X111.271 Y144.673 E0.2643
G1 X110.467 Y144.123 E0.2967
G1 X109.742 Y143.528 E0.3279
G1 X109.066 Y142.87 E0.35927
G1 X107.931 Y141.665 E0.41433
G1 X106.072 Y139.731 E0.50355
G1 X104.294 Y137.984 E0.58646
G1 X102.549 Y136.356 E0.66584
G1 X102.021 Y135.827 E0.69069
G1 X101.422 Y135.167 E0.72034
G1 X100.762 Y134.377 E0.75458
G1 X100.051 Y133.499 E0.79215
G1 X99.029 Y132.281 E0.84504
G1 X96.721 Y129.598 E0.96275
G1 X96.163 Y128.887 E0.99281
G1 X95.593 Y128.012 E1.02754
G1 X95.154 Y127.182 E1.05877
G1 X94.762 Y126.253 E1.09231
G1 X94.465 Y125.32 E1.12487
G1 X94.245 Y124.32 E1.15893
G1 X94.187 Y123.973 E1.17063
G1 X94.07 Y123.004 E1.20309
G1 X94.04 Y122.102 E1.23311
G1 X94.097 Y121.068 E1.26756
G1 X94.194 Y120.347 E1.29175
G1 X94.293 Y119.754 E1.31175
G1 X94.42 Y119.102 E1.33384
G1 X94.664 Y118.144 E1.36672
G1 X94.883 Y117.46 E1.39061
G1 X95.057 Y116.965 E1.40806
G1 X95.444 Y116.014 E1.44221
G1 X95.724 Y115.424 E1.46393
G1 X96.023 Y114.834 E1.48593
G1 X97.155 Y112.521 E1.57158
G1 X98.193 Y110.237 E1.65502
G1 X99.174 Y107.904 E1.7392
G1 X100.097 Y105.525 E1.82407
G1 X100.921 Y103.207 E1.9059
G1 X101.354 Y101.85 E1.95327
G1 X102.129 Y99.562 E2.03362
G1 X102.456 Y98.72 E2.06366
G1 X102.793 Y98.019 E2.08953
G1 X103.179 Y97.283 E2.11717
G1 X103.633 Y96.503 E2.14719
G1 X104.018 Y95.938 E2.16993
G1 X104.531 Y95.234 E2.1989
G1 X105.095 Y94.528 E2.22896
G1 X105.586 Y93.999 E2.25296
G1 X106.187 Y93.395 E2.2813
G1 X106.897 Y92.742 E2.31339
G1 X107.406 Y92.34 E2.33496
G1 X108.092 Y91.831 E2.36337
G1 X108.89 Y91.292 E2.3954
G1 X109.456 Y90.968 E2.41709
G1 X110.214 Y90.565 E2.44564
G1 X111.079 Y90.154 E2.4775
G1 X111.584 Y89.955 E2.49555
G1 X112.531 Y89.613 E2.52904
G1 X113.85 Y89.175 E2.57526
G1 X114.848 Y88.899 E2.6097
G1 X115.174 Y88.827 E2.62081
G1 X116.132 Y88.659 E2.65316
G1 X117.032 Y88.581 E2.6832
G1 X118.07 Y88.583 E2.71773
G1 X118.803 Y88.644 E2.74219
G1 X119.149 Y88.684 E2.75377
G1 X120.108 Y88.842 E2.7861
G1 X121.019 Y89.075 E2.81738
G1 X121.97 Y89.411 E2.85092
G1 X122.856 Y89.815 E2.88331
G1 X123.697 Y90.293 E2.91548
G1 X124.327 Y90.719 E2.94078
G1 X124.61 Y90.927 E2.95246
G1 X125.368 Y91.537 E2.98482
G1 X126.043 Y92.183 E3.0159
G1 X126.537 Y92.735 E3.04054
G1 X127.111 Y93.422 E3.07031
G1 X127.861 Y94.346 E3.10989
G1 X128.626 Y95.237 E3.14895
G1 X129.509 Y96.299 E3.19489
G1 X131.364 Y98.47 E3.28987
G1 X131.961 Y99.24 E3.32227
G1 X132.488 Y100.059 E3.35466
G1 X132.94 Y100.92 E3.38701
G1 X133.289 Y101.753 E3.41705
G1 X133.507 Y102.394 E3.43957
G1 X133.804 Y103.372 E3.47356
G1 X134.585 Y105.817 E3.55893
G1 X135.428 Y108.216 E3.6435
G1 X136.318 Y110.542 E3.72634
G1 X137.288 Y112.872 E3.81028
G1 X138.332 Y115.196 E3.89502
G1 X139.412 Y117.431 E3.97758
G1 X139.794 Y118.195 E4.00599
G1 X140.189 Y119.085 E4.03837
G1 X140.504 Y120.008 E4.07081
G1 X140.738 Y120.97 E4.10374
G1 X140.935 Y122.462 E4.1538
G1 X140.958 Y123.571 E4.19069
G1 X140.844 Y124.914 E4.23552
G1 X140.722 Y125.655 E4.2605
G1 X140.609 Y126.225 E4.27982
G1 X140.272 Y127.501 E4.32372
G1 X140.003 Y128.314 E4.3522
G1 X139.659 Y129.214 E4.38425
G1 X139.369 Y129.829 E4.40686
G1 X138.98 Y130.591 E4.43532
G1 X138.503 Y131.429 E4.46739
G1 X138.142 Y131.966 E4.48891
G1 X137.632 Y132.679 E4.51807
G1 X137.075 Y133.39 E4.54811
G1 X136.637 Y133.873 E4.56979
G1 X136.179 Y134.35 E4.59179
G1 X135.819 Y134.707 E4.60865
G1 X133.453 Y136.944 E4.71695
G1 X131.679 Y138.721 E4.80046
G1 X130.605 Y139.872 E4.85282
G1 X129.121 Y141.412 E4.92395
G1 X128.128 Y142.323 E4.96878
G1 X127.606 Y142.745 E4.9911
G1 X126.557 Y143.494 E5.03397
G1 X125.918 Y143.894 E5.05905
G1 X124.663 Y144.569 E5.10644
G1 X123.938 Y144.899 E5.13294
G1 X123.013 Y145.267 E5.16605
G1 X122.089 Y145.583 E5.19853
G1 X121.198 Y145.872 E5.22968
G1 X120.186 Y146.145 E5.26454
G1 X119.84 Y146.219 E5.27631
G1 X118.88 Y146.382 E5.3087
G0 F6000 X118.848 Y145.983
G1 F1200 X117.912 Y146.058 E5.33993
G1 X117.009 Y146.052 E5.36996
G1 X116.182 Y145.979 E5.39758
G1 X115.915 Y145.944 E5.40653
G1 X114.991 Y145.781 E5.43774
G1 X114.084 Y145.538 E5.46897
G1 X113.207 Y145.217 E5.50003
G1 X112.437 Y144.866 E5.52818
G1 X111.496 Y144.342 E5.564
G1 X110.721 Y143.814 E5.59519
G1 X109.996 Y143.219 E5.62639
G1 X109.357 Y142.596 E5.65607
G1 X108.222 Y141.391 E5.71113
G1 X106.36 Y139.454 E5.80049
G1 X104.567 Y137.692 E5.8841
G1 X102.832 Y136.073 E5.96303
G1 X102.317 Y135.558 E5.98725
G1 X101.729 Y134.911 E6.01633
G1 X101.073 Y134.125 E6.05038
G1 X100.362 Y133.247 E6.08796
G1 X99.335 Y132.024 E6.14108
G1 X97.036 Y129.351 E6.25834
G1 X96.478 Y128.64 E6.2884
G1 X95.947 Y127.825 E6.32076
G1 X95.508 Y126.995 E6.35199
G1 X95.143 Y126.131 E6.38318
G1 X94.856 Y125.234 E6.41451
G1 X94.636 Y124.234 E6.44856
G1 X94.584 Y123.924 E6.45902
G1 X94.47 Y122.991 E6.49028
G1 X94.44 Y122.089 E6.5203
G1 X94.493 Y121.121 E6.55254
G1 X94.588 Y120.413 E6.5763
G1 X94.686 Y119.83 E6.59596
G1 X94.808 Y119.201 E6.61727
G1 X95.052 Y118.243 E6.65015
G1 X95.26 Y117.593 E6.67285
G1 X95.428 Y117.115 E6.6897
G1 X95.805 Y116.186 E6.72305
G1 X96.081 Y115.605 E6.74444
G1 X96.38 Y115.015 E6.76644
G1 X97.514 Y112.697 E6.85227
G1 X98.557 Y110.403 E6.93609
G1 X99.543 Y108.059 E7.02066
G1 X100.47 Y105.67 E7.10589
G1 X101.298 Y103.341 E7.18811
G1 X101.733 Y101.978 E7.23569
G1 X102.502 Y99.707 E7.31544
G1 X102.829 Y98.865 E7.34548
G1 X103.147 Y98.205 E7.36985
G1 X103.525 Y97.484 E7.39693
G1 X103.979 Y96.704 E7.42694
G1 X104.341 Y96.174 E7.44829
G1 X104.844 Y95.484 E7.47669
G1 X105.408 Y94.778 E7.50675
G1 X105.87 Y94.281 E7.52932
G1 X106.458 Y93.689 E7.55707
G1 X107.145 Y93.056 E7.58814
G1 X107.644 Y92.661 E7.6093
G1 X108.316 Y92.162 E7.63714
G1 X109.089 Y91.639 E7.66819
G1 X109.644 Y91.321 E7.68946
G1 X110.386 Y90.926 E7.71742
G1 X111.226 Y90.526 E7.74836
G1 X111.72 Y90.331 E7.76603
G1 X112.657 Y89.993 E7.79916
G1 X113.957 Y89.561 E7.84472
G1 X114.955 Y89.285 E7.87916
G1 X115.243 Y89.221 E7.88897
G1 X116.167 Y89.058 E7.92018
G1 X117.067 Y88.98 E7.95023
G1 X118.037 Y88.982 E7.98249
G1 X118.757 Y89.041 E8.00652
G1 X119.085 Y89.079 E8.0175
G1 X120.01 Y89.23 E8.04867
G1 X120.886 Y89.452 E8.07873
G1 X121.805 Y89.775 E8.11113
G1 X122.659 Y90.163 E8.14233
G1 X123.473 Y90.624 E8.17344
G1 X124.091 Y91.042 E8.19825
G1 X124.36 Y91.239 E8.20934
G1 X125.091 Y91.826 E8.24053
G1 X125.766 Y92.472 E8.2716
G1 X126.23 Y92.992 E8.29478
G1 X126.8 Y93.674 E8.32434
G1 X127.55 Y94.598 E8.36393
G1 X128.318 Y95.493 E8.40315
G1 X129.201 Y96.555 E8.44909
G1 X131.048 Y98.716 E8.54364
G1 X131.625 Y99.457 E8.57487
G1 X132.134 Y100.245 E8.60608
G1 X132.571 Y101.075 E8.63727
G1 X132.92 Y101.908 E8.66731
G1 X133.124 Y102.51 E8.68845
G1 X133.423 Y103.494 E8.72266
G1 X134.208 Y105.95 E8.80842
G1 X135.054 Y108.359 E8.89334
G1 X135.944 Y110.685 E8.97617
G1 X136.923 Y113.036 E9.06088
G1 X137.967 Y115.36 E9.14561
G1 X139.054 Y117.61 E9.22872
G1 X139.429 Y118.358 E9.25655
G1 X139.811 Y119.215 E9.28776
G1 X140.116 Y120.103 E9.31899
G1 X140.342 Y121.023 E9.3505
G1 X140.535 Y122.471 E9.39909
G1 X140.559 Y123.538 E9.43458
G1 X140.449 Y124.849 E9.47834
G1 X140.33 Y125.577 E9.50287
G1 X140.222 Y126.123 E9.52139
G1 X139.892 Y127.376 E9.56448
G1 X139.629 Y128.172 E9.59237
G1 X139.297 Y129.044 E9.6234
G1 X139.013 Y129.647 E9.64557
G1 X138.632 Y130.394 E9.67346
G1 X138.171 Y131.206 E9.70451
G1 X137.817 Y131.733 E9.72563
G1 X137.317 Y132.432 E9.75421
G1 X136.76 Y133.143 E9.78426
G1 X136.348 Y133.596 E9.80462
G1 X135.897 Y134.066 E9.82629
G1 X135.544 Y134.416 E9.84282
G1 X133.178 Y136.653 E9.95112
G1 X131.396 Y138.438 E10.03501
G1 X130.317 Y139.594 E10.0876
G1 X128.833 Y141.134 E10.15874
G1 X127.876 Y142.012 E10.20193
G1 X127.374 Y142.419 E10.22343
G1 X126.325 Y143.168 E10.2663
G1 X125.706 Y143.555 E10.29058
G1 X124.497 Y144.205 E10.33623
G1 X123.79 Y144.527 E10.36207
G1 X122.865 Y144.895 E10.39518
G1 X121.965 Y145.203 E10.42682
G1 X121.094 Y145.486 E10.45728
G1 X120.102 Y145.754 E10.49146
G1 X119.773 Y145.825 E10.50265
G1 X118.848 Y145.983 E10.53386
G0 F6000 X118.815 Y145.584
G1 F1200 X117.915 Y145.658 E10.5639
G1 X117.012 Y145.652 E10.59393
G1 X116.233 Y145.582 E10.61995
G1 X115.984 Y145.55 E10.6283
G1 X115.094 Y145.395 E10.65834
G1 X114.221 Y145.162 E10.6884
G1 X113.373 Y144.853 E10.71842
G1 X112.603 Y144.502 E10.74656
G1 X111.721 Y144.011 E10.78014
G1 X110.974 Y143.504 E10.81016
G1 X110.275 Y142.932 E10.8402
G1 X109.648 Y142.322 E10.8693
G1 X108.513 Y141.117 E10.92436
G1 X106.648 Y139.177 E11.01386
G1 X104.839 Y137.398 E11.09825
G1 X103.701 Y136.345 E11.14982
G1 X103.115 Y135.79 E11.17666
G1 X102.613 Y135.289 E11.20025
G1 X102.036 Y134.655 E11.22876
G1 X101.384 Y133.873 E11.26263
G1 X100.673 Y132.995 E11.3002
G1 X99.641 Y131.767 E11.35356
G1 X97.351 Y129.104 E11.47037
G1 X96.793 Y128.393 E11.50043
G1 X96.3 Y127.637 E11.53045
G1 X95.876 Y126.839 E11.56051
G1 X95.524 Y126.008 E11.59052
G1 X95.247 Y125.148 E11.62057
G1 X95.027 Y124.148 E11.65463
G1 X94.981 Y123.875 E11.66384
G1 X94.87 Y122.978 E11.6939
G1 X94.84 Y122.076 E11.72392
G1 X94.889 Y121.174 E11.75396
G1 X94.982 Y120.48 E11.77725
G1 X95.079 Y119.906 E11.79661
G1 X95.196 Y119.3 E11.81714
G1 X95.44 Y118.342 E11.85002
G1 X95.638 Y117.725 E11.87157
G1 X95.799 Y117.265 E11.88778
G1 X96.166 Y116.358 E11.92033
G1 X96.438 Y115.786 E11.94139
G1 X96.737 Y115.196 E11.96339
G1 X97.873 Y112.873 E12.0494
G1 X98.921 Y110.569 E12.13359
G1 X99.912 Y108.214 E12.21857
G1 X100.843 Y105.815 E12.30415
G1 X101.675 Y103.475 E12.38676
G1 X102.112 Y102.106 E12.43455
G1 X102.875 Y99.852 E12.5137
G1 X103.202 Y99.01 E12.54374
G1 X103.501 Y98.391 E12.56661
G1 X103.871 Y97.685 E12.59312
G1 X104.325 Y96.905 E12.62314
G1 X104.664 Y96.41 E12.64309
G1 X105.157 Y95.734 E12.67092
G1 X105.721 Y95.028 E12.70097
G1 X106.154 Y94.563 E12.72211
G1 X106.729 Y93.983 E12.74927
G1 X107.393 Y93.37 E12.77933
G1 X107.883 Y92.982 E12.80012
G1 X108.54 Y92.493 E12.82736
G1 X109.288 Y91.986 E12.85741
G1 X109.832 Y91.674 E12.87827
G1 X110.558 Y91.287 E12.90563
G1 X111.373 Y90.898 E12.93567
G1 X111.856 Y90.707 E12.95294
G1 X112.783 Y90.373 E12.98572
G1 X114.064 Y89.947 E13.03062
G1 X115.062 Y89.671 E13.06506
G1 X115.313 Y89.615 E13.07361
G1 X116.202 Y89.457 E13.10364
G1 X117.102 Y89.379 E13.13369
G1 X118.005 Y89.381 E13.16372
G1 X118.711 Y89.438 E13.18728
G1 X119.021 Y89.474 E13.19766
G1 X119.912 Y89.618 E13.22768
G1 X120.788 Y89.84 E13.25774
G1 X121.64 Y90.139 E13.28777
G1 X122.462 Y90.511 E13.31778
G1 X123.249 Y90.956 E13.34785
G1 X123.855 Y91.365 E13.37216
G1 X124.11 Y91.551 E13.38266
G1 X124.815 Y92.115 E13.41269
G1 X125.468 Y92.739 E13.44273
G1 X125.923 Y93.248 E13.46544
G1 X126.489 Y93.926 E13.49481
G1 X127.246 Y94.859 E13.53477
G1 X128.01 Y95.749 E13.57379
G1 X128.893 Y96.811 E13.61972
G1 X130.733 Y98.962 E13.71387
G1 X131.289 Y99.674 E13.74392
G1 X131.78 Y100.432 E13.77395
G1 X132.202 Y101.23 E13.80398
G1 X132.551 Y102.063 E13.83402
G1 X132.741 Y102.626 E13.85378
G1 X133.042 Y103.616 E13.8882
G1 X133.827 Y106.072 E13.97396
G1 X134.68 Y108.502 E14.05961
G1 X135.57 Y110.828 E14.14245
G1 X136.558 Y113.2 E14.22791
G1 X137.602 Y115.524 E14.31265
G1 X138.694 Y117.784 E14.39613
G1 X139.064 Y118.521 E14.42356
G1 X139.433 Y119.346 E14.45362
G1 X139.728 Y120.199 E14.48364
G1 X139.946 Y121.076 E14.51369
G1 X140.135 Y122.481 E14.56084
G1 X140.16 Y123.505 E14.59491
G1 X140.054 Y124.784 E14.6376
G1 X139.935 Y125.512 E14.66213
G1 X139.835 Y126.021 E14.67939
G1 X139.512 Y127.251 E14.72168
G1 X139.255 Y128.03 E14.74897
G1 X138.935 Y128.874 E14.77899
G1 X138.657 Y129.465 E14.80071
G1 X138.284 Y130.197 E14.82804
G1 X137.839 Y130.983 E14.85808
G1 X137.492 Y131.5 E14.87879
G1 X137.002 Y132.185 E14.9068
G1 X136.445 Y132.896 E14.93684
G1 X136.06 Y133.319 E14.95586
G1 X135.615 Y133.782 E14.97722
G1 X135.269 Y134.125 E14.99343
G1 X132.903 Y136.362 E15.10172
G1 X131.113 Y138.155 E15.18599
G1 X130.029 Y139.316 E15.23882
G1 X128.545 Y140.856 E15.30995
G1 X127.624 Y141.701 E15.35153
G1 X127.122 Y142.108 E15.37302
G1 X126.113 Y142.829 E15.41427
G1 X125.516 Y143.203 E15.4377
G1 X124.331 Y143.841 E15.48246
G1 X123.642 Y144.155 E15.50764
G1 X122.717 Y144.523 E15.54076
G1 X121.841 Y144.823 E15.57155
G1 X120.99 Y145.1 E15.60132
G1 X120.017 Y145.363 E15.63484
G1 X119.705 Y145.431 E15.64546
G1 X118.815 Y145.584 E15.6755
G1 F2700 E10.6755
;MESH:gumbi_part.STL
G0 F6000 X116.053 Y134.728
G0 X116.23 Y134.132
G0 X117.852 Y133.228
G0 X117.5 Y132.662
;TYPE:WALL-INNER
G1 F2700 E15.6755
G1 F1200 X117.801 Y132.654 E15.68551
G1 X118.237 Y132.579 E15.70023
G1 X118.653 Y132.438 E15.71484
G1 X119.052 Y132.229 E15.72982
G1 X119.419 Y131.958 E15.74499
G1 X119.729 Y131.652 E15.75948
G1 X119.999 Y131.285 E15.77463
G1 X120.206 Y130.895 E15.78932
G1 X120.401 Y130.327 E15.80929
G1 X120.54 Y130.111 E15.81784
G1 X120.468 Y129.944 E15.82389
G1 X120.413 Y129.278 E15.84611
G1 X120.311 Y128.837 E15.86117
G1 X120.147 Y128.43 E15.87576
G1 X119.92 Y128.041 E15.89074
G1 X119.636 Y127.695 E15.90563
G1 X119.308 Y127.397 E15.92037
G1 X118.933 Y127.15 E15.9353
G1 X118.528 Y126.965 E15.95011
G1 X118.095 Y126.84 E15.9651
G1 X117.647 Y126.782 E15.98013
G1 X117.203 Y126.794 E15.9949
G1 X116.769 Y126.868 E16.00954
G1 X116.343 Y127.014 E16.02452
G1 X115.946 Y127.22 E16.0394
G1 X115.588 Y127.483 E16.05417
G1 X115.273 Y127.795 E16.06892
G1 X115.003 Y128.164 E16.08413
G1 X114.797 Y128.555 E16.09883
G1 X114.579 Y129.18 E16.12084
G1 X114.463 Y129.333 E16.12723
G1 X114.537 Y129.511 E16.13364
G1 X114.588 Y130.173 E16.15572
G1 X114.689 Y130.61 E16.17064
G1 X114.857 Y131.027 E16.18559
G1 X115.076 Y131.403 E16.20007
G1 X115.362 Y131.751 E16.21505
G1 X115.69 Y132.046 E16.22972
G1 X116.073 Y132.3 E16.24501
G1 X116.471 Y132.484 E16.25959
G1 X116.907 Y132.609 E16.27467
G1 X117.351 Y132.666 E16.28956
G1 X117.5 Y132.662 E16.29452
G0 F6000 X117.5 Y133.062
G1 F1200 X117.841 Y133.053 E16.30587
G1 X118.335 Y132.968 E16.32254
G1 X118.811 Y132.806 E16.33926
G1 X119.265 Y132.569 E16.3563
G1 X119.68 Y132.263 E16.37345
G1 X120.032 Y131.914 E16.38993
G1 X120.338 Y131.499 E16.40708
G1 X120.575 Y131.053 E16.42388
G1 X120.781 Y130.448 E16.44514
G1 X120.901 Y130.293 E16.45166
G1 X121.148 Y130.192 E16.46053
G1 X120.936 Y130.032 E16.46937
G1 X120.859 Y129.851 E16.47591
G1 X120.809 Y129.216 E16.49709
G1 X120.693 Y128.717 E16.51413
G1 X120.507 Y128.253 E16.53076
G1 X120.249 Y127.812 E16.54775
G1 X119.927 Y127.419 E16.56465
G1 X119.554 Y127.08 E16.58142
G1 X119.128 Y126.799 E16.59839
G1 X118.669 Y126.589 E16.61518
G1 X118.177 Y126.446 E16.63222
G1 X117.668 Y126.381 E16.64929
G1 X117.162 Y126.395 E16.66612
G1 X116.67 Y126.48 E16.68273
G1 X116.185 Y126.646 E16.69978
G1 X115.734 Y126.88 E16.71668
G1 X115.327 Y127.178 E16.73345
G1 X114.969 Y127.533 E16.75022
G1 X114.663 Y127.952 E16.76748
G1 X114.429 Y128.396 E16.78417
G1 X114.219 Y129 E16.80544
G1 X114.105 Y129.148 E16.81166
G1 X113.85 Y129.254 E16.82084
G1 X114.07 Y129.421 E16.83003
G1 X114.144 Y129.597 E16.83638
G1 X114.191 Y130.233 E16.85759
G1 X114.306 Y130.731 E16.87459
G1 X114.497 Y131.203 E16.89152
